X:1
T:Étude op. 30 no 14
T:Étude op. 30 no 14
T:Joachim Andersen
C:Joachim Andersen
L:1/8
Q:1/2=60
M:2/2
K:F#
V:1 treble nm="Flûte" snm="Fl."
V:1
!f!"^Moderato" (daga faea | daca Ba A2) | (Gbab gbfb | ebdb cb B2) | (Aa=Aa Ga=Ga | FaEa ^^Da E2) | %6
 (Ga=Ga FaEa | =EaDa ^^Ca D2) | (daga faea | daca Ba A2) | (Gd'c'd' bd'ad' | gd'fd' ed' d2) | %12
 (Ae'Be' ^Be'ce' | ^^caAa faea) | (dd'c'd' bd'ad' | gd'fd' ed' d2) ||!ff! (Bf'=e'f' d'f'c'f' | %17
 bf'af' gf' f2) | (=ef'^^f=e' ae'ge' | f=e'=ee' de' c2) | (Fc'bc' ac'gc' | fc'=ec' dc' c2) | %22
 (Bc'db gbfb | =ebdb cb B2) |!>(! (Gbab gbfb | =ebdb cb B2) | (Abca fa=ea | daca Ba A2)!>)! | %28
 (dd'c'd'"_dim." bd'ad' | gd'^^fd' bd' a2) | (abgb!<(! fg=eg | df=df cf F2)!<)! | %32
!f! (Bf'=e'f' d'f'c'f' | bf'af' gf' f2) | (=ef'^^f=e' ae'ge' | f=e'=ee' de' c2) | (Fc'bc' ac'gc' | %37
 fc'=ec' dc' c2) | (Bc'db gbfb | =ebdb cb B2) | (Gbab gbfb | =ebdb cb B2) | (Abca fa=ea | %43
 daca Ba A2) | (dd'c'd' bd'ad' | gd'^^fd' bd' a2) |!>(! (abgb fb=eb) | (db^^ca!>)! faea) || %48
!f! (daga faea | daca Ba A2) | (Gbab gbfb | ebdb cb B2) | (Aa=Aa Ga=Ga | FaEa ^^Da E2) | %54
 (Ga=Ga FaEa | =EaDa ^^Ca D2) | (daga faea | daca Ba A2) | (Gd'c'd' bd'ad' | gd'fd' ed' d2) | %60
 (Ae'Be' ^Be' ^^c2) | (df'ef' ff' g2) | (ae'be' ae'ge' | fd'ed' dd'Bd') | (Ae'Be' ^Be' ^^c2) | %65
 (df'ef' ff' g2) | (ae'be' ae'ge' | ^^f=e'c'e' be'ad') | (c'd'bd')!>(! (bc'ac') | (abgb) (gafa) | %70
 (fgeg) (efdf)!>)! | (d=ece) (cdBd) |!mf! (Aaga faea | daca =ca B2) | (Agfg egde | ^^ceAc GA E2) | %76
 (Daga faea | de^^ce Be A2) | (daga faea | de^^ce Be A2) |!f!!<(! (DAGA FAEA) | (DAGA!<)! FAEA) | %82
!ff! (Dd)(Df) (Da)(Dd') | D6 z2 |] %84

